icons/i_documents_accepted_fill.svg

<svg width="48" height="48" viewBox="0 0 48 48" fill="none" xmlns="http://www.w3.org/2000/svg">
<path fill-rule="evenodd" clip-rule="evenodd" d="M16 5H29L38 14V37C38 38.1046 37.1046 39 36 39H16C14.8954 39 14 38.1046 14 37V7C14 5.89543 14.8954 5 16 5ZM35 14L29 8V13C29 13.5523 29.4477 14 30 14H35ZM32.7071 21.2929C33.0976 21.6834 33.0976 22.3166 32.7071 22.7071L24 31.4142L19.2929 26.7071C18.9024 26.3166 18.9024 25.6834 19.2929 25.2929C19.6834 24.9024 20.3166 24.9024 20.7071 25.2929L24 28.5858L31.2929 21.2929C31.6834 20.9024 32.3166 20.9024 32.7071 21.2929Z" fill="black"/>
<path d="M12 11H10V38C10 40.7614 12.2386 43 15 43H34V41H15C13.3431 41 12 39.6569 12 38V11Z" fill="black"/>
</svg>

<svg
  xmlns="http://www.w3.org/2000/svg"
  width="24"
  height="24"
  viewBox="0 0 24 24"
  fill="none"
  stroke="currentColor"
  stroke-width="2"
  stroke-linecap="round"
  stroke-linejoin="round"
>
  <path
    fill-rule="evenodd"
    d="M16 5h13l9 9v23a2 2 0 0 1-2 2H16a2 2 0 0 1-2-2V7a2 2 0 0 1 2-2m19 9-6-6v5a1 1 0 0 0 1 1zm-2.293 7.293a1 1 0 0 1 0 1.414L24 31.414l-4.707-4.707a1 1 0 0 1 1.414-1.414L24 28.586l7.293-7.293a1 1 0 0 1 1.414 0"
    clip-rule="evenodd"
  />
  <path d="M12 11h-2v27a5 5 0 0 0 5 5h19v-2H15a3 3 0 0 1-3-3z" />
</svg>
